X:1
T:Title
%%score { 1 | ( 2 3 ) }
L:1/8
Q:1/4=92
M:6/8
K:C
V:1 treble nm="Grand Piano"
V:2 bass 
V:3 bass 
V:1
 [EG][EG][EG] [EG][EG][EG] | [FA]2 [EG] [EG]3 | [EG]2 [Ec] [FB]3 |[M:5/8] [EG]2 [Ge] [Gd]2 | %4
w: W.~H.~Doane * * * * *||||
[M:1/8] [FG] |[M:3/4] [EG][EG] [EG][CE] [DF][EG] |[M:7/8] A2 c c3 A |[M:3/4] GG cB AB | [Ec]6 | %9
w: |||||
 [Ge][Ge] [Ge][Ge] [Gd][Gc] | dc A [EG]3 | [EG][EG] [Ec] [FB]3 | [CG][CG] [EGc] [Gd]3 | %13
w: ||||
 [Ge][Ge] [Ge][Ge] [Gd][Gc] |[M:7/8] dcA A3 A |[M:3/4] GG cB A[DFB] | [Ec]6 |] %17
w: ||||
V:2
 [C,C][C,C][C,C] [C,C][C,C][C,C] | [C,C]2 [C,C] [C,C]3 | [C,C]2 [C,G,] [D,G,]3 | %3
[M:5/8] [C,C]2 [C,C] [G,B,]2 |[M:1/8] [G,B,] |[M:3/4] [C,C][C,C] [C,C][C,G,] [C,G,][C,C] | %6
[M:7/8][K:treble] [F,CF]2 [F,A,F] [F,A,F]3 [F,CF] |[M:3/4] z2 z D z2 | [C,C]6 | %9
 [C,C][C,C] [C,C][C,C] [D,B,][E,C] | [F,A,F][F,A,F] [F,CF] [C,C]3 | [C,C][C,C] [C,G,] [D,G,]3 | %12
 E,E, C, [G,B,]3 | [C,C][C,C] [C,C][C,C] [D,B,][E,C] | %14
[M:7/8][K:treble] [F,A,F][F,A,F][F,CF] [F,CF]3 [F,CF] |[M:3/4] z2 z D z2[K:bass] | [C,C]6 |] %17
V:3
 x6 | x6 | x6 |[M:5/8] x5 |[M:1/8] x |[M:3/4] x6 |[M:7/8][K:treble] x7 | %7
[M:3/4] [G,CE][G,CE] [G,EG][G,F]- [G,CF][G,DF] | x6 | x6 | x6 | x6 | x6 | x6 | %14
[M:7/8][K:treble] x7 |[M:3/4] [G,CE][G,CE] [G,EG][G,F]- [G,CF][K:bass][G,,G,] | x6 |] %17

